places/scalable/folder-pictures.svg

<?xml version="1.0" encoding="UTF-8" standalone="no"?>
<!-- Created with Inkscape (http://www.inkscape.org/) -->

<svg
   xmlns:dc="http://purl.org/dc/elements/1.1/"
   xmlns:cc="http://creativecommons.org/ns#"
   xmlns:rdf="http://www.w3.org/1999/02/22-rdf-syntax-ns#"
   xmlns:svg="http://www.w3.org/2000/svg"
   xmlns="http://www.w3.org/2000/svg"
   xmlns:sodipodi="http://sodipodi.sourceforge.net/DTD/sodipodi-0.dtd"
   xmlns:inkscape="http://www.inkscape.org/namespaces/inkscape"
   width="48"
   height="48"
   id="svg865"
   version="1.1"
   inkscape:version="0.48+devel r12677"
   sodipodi:docname="folder-image.svg">
  <defs
     id="defs867" />
  <sodipodi:namedview
     id="base"
     pagecolor="#ffffff"
     bordercolor="#666666"
     borderopacity="1.0"
     inkscape:pageopacity="0.0"
     inkscape:pageshadow="2"
     inkscape:zoom="5.9520717"
     inkscape:cx="12.058452"
     inkscape:cy="30.877003"
     inkscape:document-units="px"
     inkscape:current-layer="layer1"
     showgrid="false"
     inkscape:window-width="1366"
     inkscape:window-height="716"
     inkscape:window-x="0"
     inkscape:window-y="28"
     inkscape:window-maximized="1"
     borderlayer="true"
     inkscape:showpageshadow="false"
     showguides="true">
    <sodipodi:guide
       position="0,39.000017"
       orientation="30,0"
       id="guide4110" />
    <sodipodi:guide
       position="0,9.0000174"
       orientation="0,30"
       id="guide4112" />
    <sodipodi:guide
       position="30,9.0000174"
       orientation="-30,0"
       id="guide4114" />
    <sodipodi:guide
       position="30,39.000017"
       orientation="0,-30"
       id="guide4116" />
    <sodipodi:guide
       position="30,39.000017"
       orientation="30,0"
       id="guide4118" />
    <sodipodi:guide
       position="30,9.0000174"
       orientation="0,18"
       id="guide4120" />
    <sodipodi:guide
       position="48,9.0000174"
       orientation="-30,0"
       id="guide4122" />
    <sodipodi:guide
       position="48,39.000017"
       orientation="0,-18"
       id="guide4124" />
    <sodipodi:guide
       position="4,41.000017"
       orientation="34,0"
       id="guide4164" />
    <sodipodi:guide
       position="4,7.0000174"
       orientation="0,18"
       id="guide4166" />
    <sodipodi:guide
       position="22,7.0000174"
       orientation="-34,0"
       id="guide4168" />
    <sodipodi:guide
       position="22,41.000017"
       orientation="0,-18"
       id="guide4170" />
    <sodipodi:guide
       position="6,37.0002"
       orientation="27.999817,0"
       id="guide4174" />
    <sodipodi:guide
       position="6,9.0003836"
       orientation="0,35.999992"
       id="guide4176" />
    <sodipodi:guide
       position="41.999992,9.0003836"
       orientation="-27.999817,0"
       id="guide4178" />
    <sodipodi:guide
       position="41.999992,37.0002"
       orientation="0,-35.999992"
       id="guide4180" />
    <sodipodi:guide
       position="13.999998,31.000017"
       orientation="20,0"
       id="guide3296" />
    <sodipodi:guide
       position="13.999998,11.000017"
       orientation="0,20.000002"
       id="guide3298" />
    <sodipodi:guide
       position="34,11.000017"
       orientation="-20,0"
       id="guide3300" />
    <sodipodi:guide
       position="34,31.000017"
       orientation="0,-20.000002"
       id="guide3302" />
    <sodipodi:guide
       position="23.000001,35.000017"
       orientation="-1.9999999,0"
       id="guide4018" />
    <sodipodi:guide
       position="23.000001,37.000017"
       orientation="0,2"
       id="guide4020" />
    <sodipodi:guide
       position="25,37.000017"
       orientation="1.9999999,0"
       id="guide4022" />
    <sodipodi:guide
       position="25,35.000017"
       orientation="0,-2"
       id="guide4024" />
  </sodipodi:namedview>
  <metadata
     id="metadata870">
    <rdf:RDF>
      <cc:Work
         rdf:about="">
        <dc:format>image/svg+xml</dc:format>
        <dc:type
           rdf:resource="http://purl.org/dc/dcmitype/StillImage" />
        <dc:title />
      </cc:Work>
    </rdf:RDF>
  </metadata>
  <g
     inkscape:label="Capa 1"
     inkscape:groupmode="layer"
     id="layer1"
     transform="translate(0,-1004.3622)">
    <rect
       style="fill:#34495e;fill-opacity:1;stroke:none"
       id="rect4130"
       width="18"
       height="6.0000005"
       x="4"
       y="1011.3622" />
    <rect
       y="1013.3625"
       x="4"
       height="30"
       width="40"
       id="rect4128"
       style="fill:#34495e;fill-opacity:1;stroke:none" />
    <rect
       y="1015.362"
       x="6"
       height="27.999756"
       width="35.999992"
       id="rect870"
       style="fill:#ffffff;fill-opacity:1;stroke:none" />
    <rect
       style="fill:#1abc9c;fill-opacity:1;stroke:none"
       id="rect821"
       width="43.999996"
       height="28.000008"
       x="2"
       y="1017.3622" />
    <path
       sodipodi:type="arc"
       style="fill:none;stroke:none"
       id="path4145"
       sodipodi:cx="23.997576"
       sodipodi:cy="1048.8622"
       sodipodi:rx="3.502425"
       sodipodi:ry="3.5001078"
       d="m 27.500001,1048.8622 a 3.502425,3.5001078 0 0 1 -3.502425,3.5001 3.502425,3.5001078 0 0 1 -3.502425,-3.5001 3.502425,3.5001078 0 0 1 3.502425,-3.5001 3.502425,3.5001078 0 0 1 3.502425,3.5001 z" />
    <path
       d="m 25.999999,1015.3622 a 2.0013857,2.0000615 0 0 1 -2.001386,2 2.0013857,2.0000615 0 0 1 -2.001385,-2 2.0013857,2.0000615 0 0 1 2.001385,-2.0001 2.0013857,2.0000615 0 0 1 2.001386,2.0001 z"
       sodipodi:ry="2.0000615"
       sodipodi:rx="2.0013857"
       sodipodi:cy="1015.3622"
       sodipodi:cx="23.998613"
       id="path4147"
       style="fill:none;stroke:none"
       sodipodi:type="arc" />
    <path
       d="m 25,1016.3622 a 1.0006928,1.0000308 0 0 1 -1.000692,1 1.0006928,1.0000308 0 0 1 -1.000693,-1 1.0006928,1.0000308 0 0 1 1.000693,-1 1.0006928,1.0000308 0 0 1 1.000692,1 z"
       sodipodi:ry="1.0000308"
       sodipodi:rx="1.0006928"
       sodipodi:cy="1016.3622"
       sodipodi:cx="23.999308"
       id="path4149"
       style="fill:none;stroke:none"
       sodipodi:type="arc" />
    <path
       sodipodi:type="arc"
       style="fill:none;stroke:none"
       id="path4151"
       sodipodi:cx="23.999308"
       sodipodi:cy="1014.362"
       sodipodi:rx="1.0006928"
       sodipodi:ry="1.0000308"
       d="m 25,1014.362 a 1.0006928,1.0000308 0 0 1 -1.000692,1 1.0006928,1.0000308 0 0 1 -1.000693,-1 1.0006928,1.0000308 0 0 1 1.000693,-1 1.0006928,1.0000308 0 0 1 1.000692,1 z" />
    <path
       d="m 25,1012.3625 a 1.0006928,1.0000308 0 0 1 -1.000692,1 1.0006928,1.0000308 0 0 1 -1.000693,-1 1.0006928,1.0000308 0 0 1 1.000693,-1 1.0006928,1.0000308 0 0 1 1.000692,1 z"
       sodipodi:ry="1.0000308"
       sodipodi:rx="1.0006928"
       sodipodi:cy="1012.3625"
       sodipodi:cx="23.999308"
       id="path4153"
       style="fill:none;stroke:none"
       sodipodi:type="arc" />
    <path
       d="m 27.500001,1007.8622 a 3.502425,3.5001078 0 0 1 -3.502425,3.5001 3.502425,3.5001078 0 0 1 -3.502425,-3.5001 3.502425,3.5001078 0 0 1 3.502425,-3.5001 3.502425,3.5001078 0 0 1 3.502425,3.5001 z"
       sodipodi:ry="3.5001078"
       sodipodi:rx="3.502425"
       sodipodi:cy="1007.8622"
       sodipodi:cx="23.997576"
       id="path4155"
       style="fill:none;stroke:none"
       sodipodi:type="arc" />
    <rect
       y="1021.3622"
       x="13.999998"
       height="20"
       width="20"
       id="rect3340"
       style="fill:none;fill-opacity:1;fill-rule:evenodd;stroke:none" />
    <path
       style="fill:#34495e;fill-opacity:1;fill-rule:evenodd;stroke:none"
       d="M 14 17 L 14 37 L 34 37 L 34 17 L 14 17 z M 16 19 L 32 19 L 32 31 L 28 23 L 23.3125 32.375 L 20.5 28 L 16 35 L 16 19 z "
       transform="translate(0,1004.3622)"
       id="rect3292" />
    <path
       sodipodi:type="arc"
       style="fill:none;fill-opacity:1;fill-rule:evenodd;stroke:none"
       id="path3330"
       sodipodi:cx="23.999306"
       sodipodi:cy="1040.3622"
       sodipodi:rx="1.0006928"
       sodipodi:ry="1.0000308"
       d="m 24.999999,1040.3622 a 1.0006928,1.0000308 0 0 1 -1.000693,1 1.0006928,1.0000308 0 0 1 -1.000693,-1 1.0006928,1.0000308 0 0 1 1.000693,-1 1.0006928,1.0000308 0 0 1 1.000693,1 z" />
    <path
       d="m 24.999999,1022.3622 a 1.0006928,1.0000308 0 0 1 -1.000693,1 1.0006928,1.0000308 0 0 1 -1.000693,-1 1.0006928,1.0000308 0 0 1 1.000693,-1 1.0006928,1.0000308 0 0 1 1.000693,1 z"
       sodipodi:ry="1.0000308"
       sodipodi:rx="1.0006928"
       sodipodi:cy="1022.3622"
       sodipodi:cx="23.999306"
       id="path3332"
       style="fill:none;fill-opacity:1;fill-rule:evenodd;stroke:none"
       sodipodi:type="arc" />
    <path
       d="m 1032.3621,-14.999999 a 1.0006928,1.0000308 0 0 1 -1.0006,1.000031 1.0006928,1.0000308 0 0 1 -1.0007,-1.000031 1.0006928,1.0000308 0 0 1 1.0007,-1.000031 1.0006928,1.0000308 0 0 1 1.0006,1.000031 z"
       sodipodi:ry="1.0000308"
       sodipodi:rx="1.0006928"
       sodipodi:cy="-14.999999"
       sodipodi:cx="1031.3615"
       id="path3334"
       style="fill:none;fill-opacity:1;fill-rule:evenodd;stroke:none"
       sodipodi:type="arc"
       transform="matrix(0,1,-1,0,0,0)" />
    <path
       sodipodi:type="arc"
       style="fill:none;fill-opacity:1;fill-rule:evenodd;stroke:none"
       id="path3336"
       sodipodi:cx="1031.3615"
       sodipodi:cy="-33"
       sodipodi:rx="1.0006928"
       sodipodi:ry="1.0000308"
       d="m 1032.3621,-33 a 1.0006928,1.0000308 0 0 1 -1.0006,1.000031 1.0006928,1.0000308 0 0 1 -1.0007,-1.000031 1.0006928,1.0000308 0 0 1 1.0007,-1.000031 1.0006928,1.0000308 0 0 1 1.0006,1.000031 z"
       transform="matrix(0,1,-1,0,0,0)" />
    <path
       sodipodi:type="arc"
       style="fill:none;fill-opacity:1;fill-rule:evenodd;stroke:none"
       id="path3347"
       sodipodi:cx="27.265825"
       sodipodi:cy="1025.3622"
       sodipodi:rx="2.0013857"
       sodipodi:ry="2.0000615"
       d="m 29.267211,1025.3622 a 2.0013857,2.0000615 0 0 1 -2.001386,2 2.0013857,2.0000615 0 0 1 -2.001385,-2 2.0013857,2.0000615 0 0 1 2.001385,-2.0001 2.0013857,2.0000615 0 0 1 2.001386,2.0001 z" />
    <ellipse
       ry="2.0000615"
       rx="2.0013857"
       cy="1028.3622"
       cx="45.998615"
       id="path3267"
       style="fill:none;stroke:none"
       d="m 48.000001,1028.3622 a 2.0013857,2.0000615 0 0 1 -2.001386,2 2.0013857,2.0000615 0 0 1 -2.001385,-2 2.0013857,2.0000615 0 0 1 2.001385,-2.0001 2.0013857,2.0000615 0 0 1 2.001386,2.0001 z" />
    <ellipse
       style="fill:none;stroke:none"
       id="path3273"
       cx="44"
       cy="1028.3622"
       rx="2"
       ry="2.0000615"
       d="m 46,1028.3622 a 2,2.0000615 0 0 1 -2,2 2,2.0000615 0 0 1 -2,-2 2,2.0000615 0 0 1 2,-2.0001 2,2.0000615 0 0 1 2,2.0001 z" />
    <ellipse
       style="fill:none;stroke:none"
       id="path4132"
       cx="46"
       cy="1028.3622"
       rx="2"
       ry="2.0000615"
       d="m 48,1028.3622 a 2,2.0000615 0 0 1 -2,2 2,2.0000615 0 0 1 -2,-2 2,2.0000615 0 0 1 2,-2.0001 2,2.0000615 0 0 1 2,2.0001 z" />
    <ellipse
       style="fill:none;stroke:none"
       id="path3277"
       cx="47"
       cy="1028.3622"
       rx="1"
       ry="1.0000308"
       d="m 48,1028.3622 a 1,1.0000308 0 0 1 -1,1 1,1.0000308 0 0 1 -1,-1 1,1.0000308 0 0 1 1,-1 1,1.0000308 0 0 1 1,1 z" />
    <ellipse
       style="fill:none;stroke:none"
       id="path3312"
       cx="-2.0013857"
       cy="1028.3622"
       rx="2.0013857"
       ry="2.0000615"
       transform="scale(-1,1)"
       d="m 0,1028.3622 a 2.0013857,2.0000615 0 0 1 -2.0013857,2 2.0013857,2.0000615 0 0 1 -2.0013857,-2 2.0013857,2.0000615 0 0 1 2.0013857,-2.0001 A 2.0013857,2.0000615 0 0 1 0,1028.3622 Z" />
    <ellipse
       ry="2.0000615"
       rx="2"
       cy="1028.3622"
       cx="-4.0000014"
       id="ellipse3314"
       style="fill:none;stroke:none"
       transform="scale(-1,1)"
       d="m -2.0000014,1028.3622 a 2,2.0000615 0 0 1 -2,2 2,2.0000615 0 0 1 -2,-2 2,2.0000615 0 0 1 2,-2.0001 2,2.0000615 0 0 1 2,2.0001 z" />
    <ellipse
       ry="2.0000615"
       rx="2"
       cy="1028.3622"
       cx="-2.000001"
       id="ellipse3316"
       style="fill:none;stroke:none"
       transform="scale(-1,1)"
       d="m -9.5367432e-7,1028.3622 a 2,2.0000615 0 0 1 -2.00000004632568,2 2,2.0000615 0 0 1 -2,-2 2,2.0000615 0 0 1 2,-2.0001 2,2.0000615 0 0 1 2.00000004632568,2.0001 z" />
    <ellipse
       ry="1.0000308"
       rx="1"
       cy="1028.3622"
       cx="-1.0000011"
       id="ellipse3318"
       style="fill:none;stroke:none"
       transform="scale(-1,1)"
       d="m -1.0728836e-6,1028.3622 a 1,1.0000308 0 0 1 -1.0000000271164,1 1,1.0000308 0 0 1 -1,-1 1,1.0000308 0 0 1 1,-1 1,1.0000308 0 0 1 1.0000000271164,1 z" />
  </g>
</svg>

<?xml version="1.0"?>
<!-- Created with Inkscape (http://www.inkscape.org/) -->
<svg xmlns:dc="http://purl.org/dc/elements/1.1/" xmlns:cc="http://creativecommons.org/ns#" xmlns:rdf="http://www.w3.org/1999/02/22-rdf-syntax-ns#" xmlns:svg="http://www.w3.org/2000/svg" xmlns="http://www.w3.org/2000/svg" xmlns:sodipodi="http://sodipodi.sourceforge.net/DTD/sodipodi-0.dtd" xmlns:inkscape="http://www.inkscape.org/namespaces/inkscape" width="48" height="48" id="svg865" version="1.1" inkscape:version="0.49 r12742" sodipodi:docname="folder-image.svg">
  <defs id="defs867"/>
  <sodipodi:namedview id="base" pagecolor="#ffffff" bordercolor="#666666" borderopacity="1.0" inkscape:pageopacity="0.0" inkscape:pageshadow="2" inkscape:zoom="16" inkscape:cx="27.947124" inkscape:cy="24.825835" inkscape:document-units="px" inkscape:current-layer="folderLayer" showgrid="false" inkscape:window-width="1366" inkscape:window-height="718" inkscape:window-x="0" inkscape:window-y="23" inkscape:window-maximized="1" borderlayer="true" inkscape:showpageshadow="false" showguides="true">
    <sodipodi:guide position="0,39.000017" orientation="30,0" id="guide4110"/>
    <sodipodi:guide position="30,39.000017" orientation="0,-30" id="guide4116"/>
    <sodipodi:guide position="30,9.0000174" orientation="0,18" id="guide4120"/>
    <sodipodi:guide position="48,9.0000174" orientation="-30,0" id="guide4122"/>
    <sodipodi:guide position="48,39.000017" orientation="0,-18" id="guide4124"/>
    <sodipodi:guide position="4,41.000017" orientation="34,0" id="guide4164"/>
    <sodipodi:guide position="22,41.000017" orientation="0,-18" id="guide4170"/>
    <sodipodi:guide position="6,37.0002" orientation="27.999817,0" id="guide4174"/>
    <sodipodi:guide position="6,9.0003836" orientation="0,35.999992" id="guide4176"/>
    <sodipodi:guide position="41.999992,9.0003836" orientation="-27.999817,0" id="guide4178"/>
    <sodipodi:guide position="41.999992,37.0002" orientation="0,-35.999992" id="guide4180"/>
    <sodipodi:guide position="14,31.000017" orientation="20,0" id="guide4221"/>
    <sodipodi:guide position="34,11.000017" orientation="-20,0" id="guide4225"/>
    <sodipodi:guide position="34,31.000017" orientation="0,-20" id="guide4227"/>
    <sodipodi:guide position="14,31.000017" orientation="11,0" id="guide4412"/>
    <sodipodi:guide position="14,20.000017" orientation="0,11" id="guide4414"/>
    <sodipodi:guide position="25,20.000017" orientation="-11,0" id="guide4416"/>
    <sodipodi:guide position="25,31.000017" orientation="0,-11" id="guide4418"/>
    <sodipodi:guide position="25,20.000017" orientation="9,0" id="guide4420"/>
    <sodipodi:guide position="25,11.000017" orientation="0,9" id="guide4422"/>
    <sodipodi:guide position="34,11.000017" orientation="-9,0" id="guide4424"/>
    <sodipodi:guide position="34,20.000017" orientation="0,-9" id="guide4426"/>
    <sodipodi:guide position="23.000001,35.000017" orientation="-1.9999999,0" id="guide4068"/>
    <sodipodi:guide position="23.000001,37.000017" orientation="0,2" id="guide4070"/>
    <sodipodi:guide position="25,37.000017" orientation="1.9999999,0" id="guide4072"/>
    <sodipodi:guide position="25,35.000017" orientation="0,-2" id="guide4074"/>
  </sodipodi:namedview>
  <metadata id="metadata870">
    <rdf:RDF>
      <cc:Work rdf:about="">
        <dc:format>image/svg+xml</dc:format>
        <dc:type rdf:resource="http://purl.org/dc/dcmitype/StillImage"/>
        <dc:title/>
      </cc:Work>
    </rdf:RDF>
  </metadata>
  <g inkscape:groupmode="layer" id="folderLayer" inkscape:label="folder">
    <path inkscape:connector-curvature="0" id="folderBack" d="M 4,7 4,9 4,13 4,39 44,39 44,9 22,9 22,7 4,7 Z" style="fill:#34495d;fill-opacity:1;stroke:none"/>
    <rect style="fill:#ffffff;fill-opacity:1;stroke:none" id="folderPaper" width="35.999992" height="27.999756" x="6" y="10.9998"/>
    <rect y="12.999983" x="2" height="28.000008" width="43.999996" id="folderFront" style="fill:#1abc9c;fill-opacity:1;stroke:none"/>
    <path inkscape:connector-curvature="0" style="fill:#304050;fill-opacity:1;fill-rule:evenodd;stroke:none" d="m 13.999998,16.999987 0,20 20,0 0,-20 -20,0 z m 2,2 16,0 0,12 -4,-8 -4.6875,9.375 -2.8125,-4.375 -4.5,7 0,-16 z" id="folderGlyph"/>
  </g>
</svg>
